X:1
T:There’s Life at the Open Door
T:There’s Life at the Open Door
T:William Howard Doane
T:Frances Jane (Fanny) Crosby, 1875
T:Public Domain Courtesy of the Cyber Hymnal™
T:Public Domain Courtesy of the Cyber Hymnal™
C:William Howard Doane
Z:Public Domain
Z:Courtesy of the Cyber Hymnal™
%%score ( 1 2 ) ( 3 4 )
L:1/8
Q:1/4=90
M:6/8
K:Bb
V:1 treble 
V:2 treble 
V:3 bass 
V:4 bass 
V:1
 [DF]/[DF]/ | [DF][^C=E][DF] [FA]2 [_EG] | [DF]3 [DB]2 [FB] | [GB][^FA][GB] (cB)[EG] | %4
w: 1.~I have|longed for the bliss of|par- don, And|sighed to be cleansed * from|
w: 2.~I have|clung to the hopes that|per- ish, And|now, in my hour * of|
w: 3.~I will|trust though I walk in|dark- ness, And|pray till the light * I|
w: 4.~I have|longed for the bliss of|par- don, And|sighed to be cleansed * from|
 [DF]3- [DF]2 [DF]/[DF]/ | [DF][^C=E][DF] [DF]2 [DF] | [EG]3 [EB]2 [GB] | [FA][FA][FA] [Ec]2 [Fd] | %8
w: sin; * And I|know if I come be-|liev- ing, My|Sav- ior will let me|
w: need, * How they|die in my heart, and|leave me As|frail as a bro- ken|
w: see; * For the|blood that has cleansed the|vil- est, Will|sure- ly a- vail for|
w: sin; * And I|knock at the door, be-|liev- ing That|Je- sus will let me|
 [DB]3- [DB]2 [FB]/[FB]/ | [^FA][FA][FA] [Fd]2 [FA] | [Gc]3 [GB]2 (B/A/) | %11
w: in; * For the|door of His love is|o- pen, He *|
w: reed; * I have|hard- ly the strength or|cour- age, But *|
w: me; * I have|on- ly this plea to|of- fer, That *|
w: in; * O the|faith in my soul grows|strong- er, I *|
 [EG][E^F][EG] [EB]2 [EG] | [DF]3- [DF]2 [DF]/[DF]/ | [DF][^C=E][DF] [DF]2 [DF] | %14
w: wait- eth for those who|seek; * But I|trem- ble with fear and|
w: O I will try once|more; * There is|life if my faith can|
w: Je- sus for me has|died; * And with|on- ly my heart to|
w: trem- ble with fear no|more; * ’Tis my|Sav- ior that bids me|
 [EG]3 [EB]2 [GB] | [Fd]>[Fd][Fd] [Fd]2 [Ec] | [DB]3- [DB]2 ||"^Refrain" !fermata![DF] | %18
w: doubt- ing; O,|why is my faith so|weak? *||
w: reach it, There’s|life at the o- pen|door. *|O|
w: give Him, I|haste to His bleed- ing|side. *||
w: wel- come; I|en- ter the o- pen|door. *||
 [Fd]3- [Fd]2 [Ec] | [DB]3 [DF]2 [FB] | [Fc][Fc][Fc] [Fc][Fd][Fe] | [Fe]3 [Fd]2 [FB] | %22
w: ||||
w: pre- * cious|Sav- ior! I|know I have slight- ed Thy|mer- cy; It|
w: ||||
w: ||||
 [FA]3 z2 [FA] | [FB]3 z2 [Fc] | [F_d][Fd][Fd] [Fe]2 [Fd] | [Fc]3- [Fc]2 [EF] | %26
w: ||||
w: comes, it|comes, It|comes to me more and|more; * But|
w: ||||
w: ||||
 [DF][^C=E][DF] [DF]2 [DF] | [EG][E^F][EG] [EG]2 [GB] | [Fd]>[Fd][Fd] [Fd]2 [Ec] | [DB]3- [DB]2 |] %30
w: ||||
w: soft- ly Thy Spir- it|whis- pers to me, There’s|life at the o- pen|door. *|
w: ||||
w: ||||
V:2
 x | x6 | x6 | x3 G2 x | x6 | x6 | x6 | x6 | x6 | x6 | x5 F | x6 | x6 | x6 | x6 | x6 | x5 || x | %18
 x6 | x6 | x6 | x6 | x6 | x6 | x6 | x6 | x6 | x6 | x6 | x5 |] %30
V:3
 [B,,B,]/[B,,B,]/ | [B,,B,][B,,B,][B,,B,] [E,B,]2 [E,B,] | [B,,B,]3 [B,,B,]2 [D,B,] | %3
w: ~ ~|~ ~ ~ ~ ~|~ ~ ~|
 [E,B,][E,B,][E,B,] [E,B,]2 [E,B,] | [B,,B,]3- [B,,B,]2 [B,,B,]/[B,,B,]/ | %5
w: ~ ~ ~ ~ ~|~ * ~ ~|
 [B,,B,][B,,B,][B,,B,] [B,,B,]2 [B,,B,] | [E,B,]3 [E,G,]2 [C,C] | [F,C][F,C][F,C] [F,A,]2 [F,A,] | %8
w: ~ ~ ~ ~ ~|~ ~ ~|~ ~ ~ ~ ~|
 [B,,B,]3- [B,,B,]2 [B,,D]/[B,,D]/ | [D,D][D,D][D,D] [D,A,]2 [D,D] | [G,D]3 [G,D]2 [D,B,] | %11
w: ~ * ~ ~|~ ~ ~ ~ ~|~ ~ ~|
 [E,A,][E,A,][E,B,] [E,G,]2 [E,B,] | [B,,B,]3- [B,,B,]2 [B,,B,]/[B,,B,]/ | %13
w: ~ ~ ~ ~ ~|~ * ~ ~|
 [B,,B,][B,,B,][B,,B,] [B,,B,]2 [B,,B,] | [E,B,]3 [E,G,]2 [E,B,] | %15
w: ~ ~ ~ ~ ~|~ ~ ~|
 [F,B,]>[F,B,][F,B,] [F,B,]2 [F,A,] | [B,,B,]3- [B,,B,]2 || [B,,B,] | [B,,B,]3- [B,,B,]2 [B,,F,] | %19
w: ~ ~ ~ ~ ~|~ *|~|~ * ~|
 [B,,F,]3 [B,,B,]2 [D,B,] | [F,A,][F,A,][F,A,] [F,A,][F,B,][F,C] | [A,C]3 B,2 [D,B,] | %22
w: ~ ~ ~|~ ~ ~ ~ ~ ~|~ ~ It|
 [F,C][F,C][F,C] [F,C]2 [E,C] | [_D,B,]2 [D,B,] [D,B,]2 [C,A,] | %24
w: comes to me more *||
 [B,,B,][B,,B,][B,,B,] [A,,C]2 [B,,B,] | [F,A,]3- [F,A,]2 [F,A,] | %26
w: ||
 [B,,B,][B,,B,][B,,B,] [B,,B,]2 [B,,B,] | [E,B,][E,A,][E,B,] [E,B,]2 [E,B,] | %28
w: ||
 [F,B,]>[F,B,][F,B,] [F,B,]2 [F,A,] | [B,,B,]3- [B,,B,]2 |] %30
w: ||
V:4
 x | x6 | x6 | x6 | x6 | x6 | x6 | x6 | x6 | x6 | x6 | x6 | x6 | x6 | x6 | x6 | x5 || x | x6 | x6 | %20
 x6 | x3 B,2 x | x6 | x6 | x6 | x6 | x6 | x6 | x6 | x5 |] %30

